styles/4/Numix/64/places/grey-user-home.svg

<?xml version="1.0" encoding="UTF-8" standalone="no"?>
<!-- Created with Inkscape (http://www.inkscape.org/) -->

<svg
   xmlns:dc="http://purl.org/dc/elements/1.1/"
   xmlns:cc="http://creativecommons.org/ns#"
   xmlns:rdf="http://www.w3.org/1999/02/22-rdf-syntax-ns#"
   xmlns:svg="http://www.w3.org/2000/svg"
   xmlns="http://www.w3.org/2000/svg"
   xmlns:sodipodi="http://sodipodi.sourceforge.net/DTD/sodipodi-0.dtd"
   xmlns:inkscape="http://www.inkscape.org/namespaces/inkscape"
   width="64"
   height="64"
   id="svg2"
   version="1.1"
   inkscape:version="0.91 r"
   sodipodi:docname="grey-user-home.svg"
   inkscape:export-filename="/media/Data/Main/Visuals/Icons/Numix/Desktop/repos/numix-wiki/Gjorgi/Numix-folders/48/New/folder-144.png"
   inkscape:export-xdpi="270"
   inkscape:export-ydpi="270">
  <defs
     id="defs4" />
  <sodipodi:namedview
     id="base"
     pagecolor="#ffffff"
     bordercolor="#666666"
     borderopacity="1.0"
     inkscape:pageopacity="0.0"
     inkscape:pageshadow="2"
     inkscape:zoom="9.1843085"
     inkscape:cx="19.387531"
     inkscape:cy="19.79328"
     inkscape:document-units="px"
     inkscape:current-layer="layer1"
     showgrid="true"
     inkscape:window-width="1280"
     inkscape:window-height="998"
     inkscape:window-x="0"
     inkscape:window-y="0"
     inkscape:window-maximized="1"
     showguides="true"
     inkscape:guide-bbox="true">
    <inkscape:grid
       type="xygrid"
       id="grid2985"
       empspacing="5"
       visible="true"
       enabled="true"
       snapvisiblegridlinesonly="true" />
  </sodipodi:namedview>
  <metadata
     id="metadata7">
    <rdf:RDF>
      <cc:Work
         rdf:about="">
        <dc:format>image/svg+xml</dc:format>
        <dc:type
           rdf:resource="http://purl.org/dc/dcmitype/StillImage" />
        <dc:title />
      </cc:Work>
    </rdf:RDF>
  </metadata>
  <g
     inkscape:label="Layer 1"
     inkscape:groupmode="layer"
     id="layer1"
     transform="translate(0,-988.3622)">
    <path
       style="fill:#757575;fill-opacity:1;stroke:none"
       d="m 8,998.36219 47,0 c 2,0 3,0.99975 3,2.99921 l 0,6.9982 c 0,1.1077 -0.9474,0.9997 -2,0.9997 l -48,0 c -1.0526,0 -2,-0.8918 -2,-1.9995 l 0,-8.99761 z"
       id="path3811"
       inkscape:connector-curvature="0"
       sodipodi:nodetypes="csssssscc" />
    <path
       style="opacity:0.02999998;fill:#000000;fill-opacity:1;stroke:none"
       d="m 6,1004.3623 0,4.9999 52,0 0,-4.9999 z"
       id="path3807"
       inkscape:connector-curvature="0" />
    <path
       style="fill:#757575;fill-opacity:1;stroke:none"
       d="m 6,1002.3622 0,-4.99998 c 0,-2 0.909091,-3 1.8181819,-3 l 10.3636361,0 c 0.909091,0 1.818182,1 1.818182,3 l 0,4.99998 z"
       id="rect3760"
       inkscape:connector-curvature="0"
       sodipodi:nodetypes="csssscc" />
    <rect
       style="fill:#bdbdbd;fill-opacity:1;stroke:none"
       id="rect2990"
       width="60"
       height="40"
       x="2"
       y="1006.3622"
       rx="4"
       ry="3.3333333" />
    <path
       style="opacity:0.1;fill:#ffffff;fill-opacity:1;stroke:none"
       d="m 6,1006.3622 c -2.216,0 -4,1.4971 -4,3.3438 l 0,2 c 0,-1.8467 1.784,-3.3438 4,-3.3438 l 52,0 c 2.216,0 4,1.4971 4,3.3438 l 0,-2 c 0,-1.8467 -1.784,-3.3438 -4,-3.3438 l -52,0 z"
       id="rect3004"
       inkscape:connector-curvature="0" />
    <path
       style="opacity:0.05;fill:#000000;fill-opacity:1;stroke:none"
       d="m 20,998.3622 0,2 2,0 33,0 c 2,0 3,1.0005 3,3 l 0,-2 c 0,-1.99946 -1,-3 -3,-3 l -33,0 z"
       id="path3781"
       inkscape:connector-curvature="0"
       sodipodi:nodetypes="cccscsscc" />
    <path
       style="opacity:0.05;fill:#000000;fill-opacity:1;stroke:none"
       d="m 7.8125,994.3622 c -0.9090909,0 -1.8125,1 -1.8125,3 l 0,2 c 0,-2 0.9034091,-3 1.8125,-3 l 10.375,0 c 0.909091,0 1.8125,1 1.8125,3 l 0,-2 c 0,-2 -0.903409,-3 -1.8125,-3 l -10.375,0 z"
       id="path3801"
       inkscape:connector-curvature="0" />
    <path
       style="opacity:1.0;fill:#7f7f7f;fill-opacity:1"
       d="M 31 24.5 C 30.5 24.5 30 25 29 26 L 21 34 C 16.59322 38 15 38 21 38 L 21 48 C 21 50.216 22.784 52 25 52 L 28 52 L 28 42 L 34 42 L 34 52 L 37 52 C 39.216 52 41 50.216 41 48 L 41 38 C 47 38 45.576272 38 41 34 L 41 28 C 41 26.892 41 26 39 26 C 37 26 37 26.892 37 28 L 37 30 L 33 26 C 32 25 31.5 24.5 31 24.5 z "
       transform="translate(0,988.3622)"
       id="rect2989-0" />
  </g>
</svg>

<!-- Created with Inkscape (http://www.inkscape.org/) -->
<svg xmlns="http://www.w3.org/2000/svg" viewBox="0 0 64 64">
 <g transform="translate(0,-988.3622)">
  <path d="m 8 998.36 47 0 c 2 0 3 1 3 2.999 l 0 6.998 c 0 1.108 -0.947 1 -2 1 l -48 0 c -1.053 0 -2 -0.892 -2 -2 l 0 -8.998 z" style="fill:#757575;fill-opacity:1;stroke:none"/>
  <path d="m 6 1004.36 0 5 52 0 0 -5 z" style="fill:#000;opacity:0.03;fill-opacity:1;stroke:none"/>
  <path d="m 6 1002.36 0 -5 c 0 -2 0.909 -3 1.818 -3 l 10.364 0 c 0.909 0 1.818 1 1.818 3 l 0 5 z" style="fill:#757575;fill-opacity:1;stroke:none"/>
  <rect width="60" height="40" x="2" y="1006.36" rx="4" ry="3.333" style="fill:#bdbdbd;fill-opacity:1;stroke:none"/>
  <path d="m 6 1006.36 c -2.216 0 -4 1.497 -4 3.344 l 0 2 c 0 -1.847 1.784 -3.344 4 -3.344 l 52 0 c 2.216 0 4 1.497 4 3.344 l 0 -2 c 0 -1.847 -1.784 -3.344 -4 -3.344 l -52 0 z" style="fill:#fff;opacity:0.1;fill-opacity:1;stroke:none"/>
  <path d="m 20 998.36 0 2 2 0 33 0 c 2 0 3 1 3 3 l 0 -2 c 0 -1.999 -1 -3 -3 -3 l -33 0 z" style="fill:#000;opacity:0.05;fill-opacity:1;stroke:none"/>
  <path d="m 7.813 994.36 c -0.909 0 -1.813 1 -1.813 3 l 0 2 c 0 -2 0.903 -3 1.813 -3 l 10.375 0 c 0.909 0 1.813 1 1.813 3 l 0 -2 c 0 -2 -0.903 -3 -1.813 -3 l -10.375 0 z" style="fill:#000;opacity:0.05;fill-opacity:1;stroke:none"/>
  <path d="m 31 24.5 c -0.5 0 -1 0.5 -2 1.5 l -8 8 c -4.407 4 -6 4 0 4 l 0 10 c 0 2.216 1.784 4 4 4 l 3 0 l 0 -10 l 6 0 l 0 10 l 3 0 c 2.216 0 4 -1.784 4 -4 l 0 -10 c 6 0 4.576 0 0 -4 l 0 -6 c 0 -1.108 0 -2 -2 -2 c -2 0 -2 0.892 -2 2 l 0 2 l -4 -4 c -1 -1 -1.5 -1.5 -2 -1.5 z" transform="translate(0,988.3622)" style="fill:#7f7f7f;opacity:1;fill-opacity:1"/>
 </g>
</svg>
